!!!OTL: 410. Nachtgesang.
!!!ARE: Europa, Mitteleuropa, Deutschland
!!!SCT: B0410
!!!TXL: @@DE
!!!YEM: Copyright 1995, estate of Helmut Schaffrath.
**kern	**text
*ICvox	*
*Ivox	*
*clefG2	*
*M2/4	*
*k[f#c#]	*
*D:	*
=1	=1
!LO:TX:a:t=Gehend.	!
{8f#	Lie-
8f#	-bes
8a	Mädchen,
8a	.
=2	=2
8g	hör'
8g	mir
4e}	ʒu,
=3	=3
{8f#	öff-
8f#	-ne
8g	leiſ'
8f#	das
=4	=4
4f#	Git-
4e}	-ter,
=5	=5
{8f#	denn
8f#	mein
8a	Herʒ
8a	hat
=6	=6
8g#	kei-
8g#	-ne
4b}	Ruh',
=7	=7
{8cc#	kei-
8b	-ne
8a	Ruh
8g#	die
=8	=8
4b/	Ʒi-
8a	-ther;
8r}	.
=9	=9
{8gn	hal-
8g	-ten
8e	Kloſter-
8e	.
=10	=10
8a	-mau-
8a	-ern
4f#}	dich
=11	=11
{8dd	noch
8dd	ſo
8b	ſtreng
8b	ge-
=12	=12
4cc#	-bun-
8a	-den,
8r}	.
=13	=13
{8f#	ha-
8f#	-ben
8a	mei-
8a	-ne
=14	=14
8dd	Lie-
8dd	-der
4a}	ſich
=15	=15
{8b	doch
8ee	ʒu
8dd	dir
8cc#	ge-
=16	=16
4ee	-fun-
8dd	-den.
8r}	.
==	==
!!!AGN: Liebes - Lied, Liebes - Lust
!!!GTL: Liebeslieder - Liebeslust
!!!ONB: ESAC (Essen Associative Code) Database: BOEHME
!!!AMT: simple duple
!!!AIN: vox
!!!EED: Helmut Schaffrath
!!!EEV: 1.0
!!Nach einer Mel. v. Joſ. Haydn.
!!@@COMMENT:"Texwerfaſſer unbekannt. Die Melodie, angeblich von J. Haydn ſteht hier nach Reinhold's
!!Melodienbuch 1838. Ʒu dieſer um 1810-30 viel geſungenen Melodie giebt's auch noch einen
!!anderen Text gleichen Anfangs, der nach fl. Bll. (wohl Berlin, Ʒürngibl um 1820) und nach 
!!Bernhard's Liederlexikon 1846 [...]"
!!@@END:
!!!URL-scan: https://archive.org/details/BoehmeVtLieder1895/page/n337/mode/2up
!!!ENC: Anna Maria Matuszewska
!!!EEV: 2024/08/07
*-	*-
